**kern	**kern	**kern
*staff3	*staff2	*staff1
*tb16	*tb16	*tb16
=1-	=1-	=1-
*clefF4	*clefG2	*clefG2
*k[f#c#g#d#]	*k[f#c#g#d#]	*k[f#c#g#d#]
*met(c)	*met(c)	*met(c)
*M4/4	*M4/4	*M4/4
8r	8b\	8r
8r	8r	8r
4r	4r	4r
4r	4r	4r
4r	4r	4r
=2	=2	=2
*	*^	*
4r	[4.bb/	2B\ 2g#\	1r
4B\	.	.	.
.	8bb/L]	.	.
*	*v	*v	*
4r	16gg#/	.
.	16ee/JJ	.
*	*^	*
.	4.ryy	8b\L	.
4r	.	8b\	.
.	.	8a#\ 8cc#\	.
*	*v	*v	*
=3	=3	=3
4e\	2a\ 2dd#\	2.r
4B\	.	.
4E\	4g#\ 4ee\	.
4r	4r	4B/
=4	=4	=4
1EE/ 1E/	8B/L	4g#/
.	8e/	.
.	8g#/	4g#/
.	8e/J	.
.	8A#/L	4f##/
.	8e/	.
.	8f##/	4f##/
.	8e/J	.
=5	=5	=5
!!linebreak:original
1EE/ 1E/	8B/L	2g#/
.	8e/	.
.	8g#/	.
.	8e/J	.
.	8B/L	4e/
.	8e/	.
.	8g#/	4g#/
.	8e/J	.
=6	=6	=6
1EE/ 1E/	8e/L	4b\
.	8g#/	.
.	8b/	4b\
.	8g#/J	.
.	8e/L	4a#/
.	8f#/	.
.	8a#/	4a#/
.	8f#/J	.
=7	=7	=7
1EE/ 1E/	8e/L	2b\
.	8g#/	.
.	8b/	.
.	8g#/J	.
.	8e/L	4r
.	8g#/	.
.	8b/	4b\
.	8g#/J	.
=8	=8	=8
!!linebreak:original
2F#\	8d#/L	4dd#\
.	8f#/	.
.	8b/	8cc#\L
.	8g#/J	8b\J
2FF#/	8e/L	4f#/
.	8f#/	.
.	8a#/	8g#/L
.	8f#/J	8a#/J
=9	=9	=9
4BBB/ 4BB/	8d#/L	4b\
.	8f#/	.
2BBB#/ 2BB#/	8d#/	2an/
.	8f#/J	.
.	8a/L	.
.	8f#/	.
4CC#/ 4C#/	8e/	4g#/
.	8g#/J	.
=10	=10	=10
2.AAA/ 2.AA/	8A/L	4cc#\
.	8c#/	.
.	8e/	4a/
.	8c#/J	.
.	8A/L	4f#/
.	8c#/	.
4AAA#/ 4AA#/	8F#/	4e/
.	8c#/J	.
=11	=11	=11
!!linebreak:original
2.BBB/ 2.BB/	8F#/L	2b\
.	8B/	.
.	8d#/	.
.	8B/J	.
.	8d#/L	4r
.	8f#/	.
4r	8fn/	4ddn\
.	8a/J	.
=12	=12	=12
4r	8e/L	4cc#\
.	8a/	.
4EE/ 4E/	8dn/	4g#/
.	8f#/J	.
4AA/	8c#/L	4a/
.	8e/	.
4r	8a/	4ccn\
.	8e-/J	.
=13	=13	=13
4r	8gn/L	4b\
.	8d#/	.
4DD#/ 4D#/	8cn/	4f#/
.	8dn/J	.
4GGn/	8B/L	4gn/
.	8d/	.
4r	8g/	4b\
.	8d/J	.
=14	=14	=14
!!linebreak:original
1FF#/ 1F#/	8e/L	4a#/
.	8f#/	.
.	8d#/	4b\
.	8f#/J	.
.	8A#/L	4cc#\
.	8f#/	.
.	8B/	4ddn\
.	8f#/J	.
=15	=15	=15
1FF#/ 1F#/	8a#/L 8cc#/L	4ff#\
.	8f#/	.
.	8b/ 8ddn/	8ee\L
.	8e#/J	8ddn\J
.	4f#/ 4a#/	8cc#\
.	.	8b\
.	4r	8dd#\
.	.	8ee\
=16	=16	=16
8r	8r	(4ee#\
8BB/L	8B/L 8d#/L 8f#/L 8a/L	.
8BB/	8B/ 8d#/ 8f#/ 8a/	4ff#\)
8BB/J	8B/J 8d#/J 8f#/J 8a/J	.
4BB/	4B/ 4d#/ 4f#/ 4a/	8r
.	.	8b\
4r	4r	8dd#\
.	.	8een\
=17	=17	=17
!!linebreak:original
8r	8r	(4ee#\
8BB/L	8B/L 8d#/L 8f#/L 8a/L	.
8BB/	8B/ 8d#/ 8f#/ 8a/	4ff#\)
8BB/J	8B/J 8d#/J 8f#/J 8a/J	.
4BB/	4B/ 4d#/ 4f#/ 4a/	4r
4r	4r	4b\
=18	=18	=18
2.FF#\ 2.E\	8r	[4gg#\
.	8g#/L 8b/L	.
.	8f##/ 8a#/	8gg#\]
.	8f#/J 8an/J	16ff#\LL
.	.	16ee\JJ
.	8e/L 8g#/L	8b\
.	8ee/ 8gg#/	8b\
4BB\	8dd##/ 8ff#/	8cc#\
.	8dd#/J 8ffn/J	8dd#\
=19	=19	=19
*^	*	*
8E/L 8G#/L	4.EE\	8r	4ee\
8G#/ 8B/	.	8r	.
8F##/ 8A#/ 8c#/	.	4r	4r
8F#/J 8An/J 8d#/J	8BBB\	.	.
4E/ 4G#/ 4e/	4EE\	4r	4r
*v	*v	*	*
8r	4r	8r
8r	.	8r
==	==	==
*-	*-	*-
